azure-patterns/svg-pencil.svg

<svg xmlns="http://www.w3.org/2000/svg" viewBox="0 0 41 41">
                                
                            
    <rect width="41" height="41" fill-opacity="0"></rect>
    <path d="M35.835 30.8901C33.8997 31.3172 32.6252 32.098 32.0112 33.2324C31.3973 34.3669 31.0236 35.2344 30.8901 35.835L37.4766 37.4766L35.835 30.8901ZM28.5879 34.4736C29.055 33.0589 29.7991 31.8411 30.8201 30.8201C31.8411 29.7991 33.0589 29.055 34.4736 28.5879L12.8125 6.94678L6.94678 12.8125L28.5879 34.4736ZM3.7937 3.7937C3.7937 3.7937 3.5885 3.9989 3.1781 4.4093C2.7677 4.8197 2.5625 5.61214 2.5625 6.78662C2.5625 7.9611 3.09635 9.04883 4.16406 10.0498L5.125 10.9907L10.9907 5.125L10.0498 4.16406C9.7028 3.81706 9.28239 3.46338 8.78857 3.10303C8.29476 2.74267 7.6875 2.5625 6.9668 2.5625C5.6722 2.5625 4.6145 2.9729 3.7937 3.7937ZM1.96191 11.4712C0.653971 10.1632 0 8.58171 0 6.72656C0 4.85807 0.653971 3.26985 1.96191 1.96191C3.26986 0.653971 4.85807 -9.62957e-07 6.72656 -9.62957e-07C8.58171 -9.62957e-07 10.1632 0.653971 11.4712 1.96191L37.8369 28.3276L41 41L28.3276 37.8369L1.96191 11.4712Z"></path>
</svg>

<svg xmlns="http://www.w3.org/2000/svg" viewBox="0 0 41 41"><path fill="none" d="M0 0h41v41H0z"/><path d="M35.835 30.89c-1.935.427-3.21 1.208-3.824 2.342-.614 1.135-.987 2.002-1.12 2.603l6.586 1.642-1.642-6.587zm-7.247 3.584a9.14 9.14 0 0 1 2.232-3.654 9.14 9.14 0 0 1 3.654-2.232L12.813 6.947l-5.866 5.865 21.64 21.662zM3.794 3.794l-.616.615c-.41.41-.615 1.203-.615 2.378 0 1.174.533 2.262 1.601 3.263l.961.94 5.866-5.865-.941-.96c-.347-.348-.768-.702-1.261-1.062-.494-.36-1.101-.54-1.822-.54-1.295 0-2.353.41-3.173 1.23zM1.962 11.47C.654 10.163 0 8.581 0 6.727 0 4.858.654 3.27 1.962 1.962 3.27.654 4.858 0 6.727 0c1.855 0 3.436.654 4.744 1.962l26.366 26.366L41 41l-12.672-3.163L1.962 11.47z"/></svg>
